X:943
T:Jessie Smith Hornpipe
S:Peter Leatham 78rpm
Z:Nigel Gatherer
M:4/4
L:1/8
K:G
(3def | gdBG FGDC | B,DGd Bd g2 | (3ded cd Bd Ad | GdFd EdDd |
gdBG FGDC | B,DGd Bd g2 | (3ded fd cAEF | G2 B2 G2 :|
(3def | gdBG ecAF | GBdB gdBd | B,DGB CEAc | (3ABA B^c d2 
(3def | gdBG ecAF | GBdB gdBd | B,DGc BAGF | G2 B2 G2 :|
<end>
<start>
